X:1
T:Safely, Safely, 77.77 D
T:William Henry Monk, 1889
T:Safely, Safely, 77.77 D
T:Public Domain
C:William Henry Monk, 1889
Z:Public Domain
%%score ( 1 2 ) ( 3 4 )
L:1/8
M:4/4
K:Eb
V:1 treble 
V:2 treble 
V:3 bass 
V:4 bass 
V:1
 [EG]2 [EG]2 [EG]2 [EG]2 | [FB]3 [FA] [EG]4 | [EG]2 [B,F]2 [EA]2 [EG]2 | F2 [EF]2 [DF]4 | %4
 [EG]2 [EG]2 [EG]2 [EG]2 | [FB]3 [FA] [EG]4 | [DF]2 [EG]2 [DF]2 [FB]2 | [Gc]2 [E=A]2 [DB]4 | %8
 [FA]2 [EG]2 [Ec]2 [EB]2 | [DB]3 [FA] [EG]4 | [EG]2 [EG]2 [EA]2 [EB]2 | [Ec]2 [EF]2 (E2 D2) | %12
 [DF]2 [FB]2 [EB]2 [EA]2 | [EG]2 [EF]2 [EG]4 | [EG]2 [EA]2 [EB]2 [Ec]2 | E2 z F E4 x |] %16
V:2
 x8 | x8 | x8 | F2 x6 | x8 | x8 | x8 | x8 | x8 | x8 | x8 | x4 F4 | x8 | x8 | x8 | G3 (D2 E4) |] %16
V:3
 [E,B,]2 [E,B,]2 [E,B,]2 [E,B,]2 | [D,B,]3 [D,B,] [E,B,]4 | [E,B,]2 [D,B,]2 [C,A,]2 [E,B,]2 | %3
 [D,B,]2 [C,=A,]2 [B,,B,]4 | [E,B,]2 [E,B,]2 [E,B,]2 [E,B,]2 | [D,B,]3 [D,B,] [E,B,]4 | %6
 [B,,B,]2 [B,,B,]2 [B,,B,]2 [D,B,]2 | [C,E]2 [F,C]2 [B,,B,]4 | [D,B,]2 [E,B,]2 A,2 [G,B,]2 | %9
 [F,B,]3 [D,B,] [E,B,]4 | [E,B,]2 [_D,B,]2 [C,A,]2 [B,,_D]2 | [A,,C]2 [=A,,C]2 [B,,B,]4 | %12
 [B,,B,]2 [D,B,]2 [C,G,]2 [_C,A,]2 | [B,,B,]2 [A,,C]2 [E,B,]4 | [C,C]2 [C,A,]2 [B,,G,]2 [A,,C]2 | %15
 B,,2 z A, [E,G,]4 x |] %16
V:4
 x8 | x8 | x8 | x8 | x8 | x8 | x8 | x8 | x4 A,2 x2 | x8 | x8 | x8 | x8 | x8 | x8 | B,3 B,,2 x4 |] %16

